X: 305852
M: 2/4
L: 1/16
K: A
c>d |\
e3c A2fe | e3d B2d2 | c>Ae>c a>ed>c | B>AG>F E2cd |\
e>cA>E C>EA>c | e>dc>d B2cd | e>af>d | c>eG>B | A2c2A2 H|]


